!!!!SEGMENT: pl-sa--l-1636--071_anonim--fuga.krn
!!!cenid: 17xx:778
!!!COM: Anonim
!!!COM-rismid: pe30004985
!!!CDT:
!!!CNT:
!!!OTL: Fuga
!!!PDT:
!!!AGN: Secular; Fugue
!!!SMS-siglum: PL-SA
!!!SMS-shelfmark: L 1636
!!!SMS-shelfwork: 071 W
!!!SMS-variant:
!!!SMS-altvar:
!!!NIFC-rismid: 1001076911
!!!URL-scan: http://repozytorium.nifc.pl/skany/pl-sa-nut--l1636
!!!ONB-nifc: 21r, skan 0024, s. 7-8
!!!key:
**kern	**kern
*part1	*part1
*staff2	*staff1
*Iempty	*Iempty
*I"[Keyboard]	*
*I'keyb	*
*clefC4	*clefC1
*k[b-]	*k[b-]
*F:	*F:
*M2/2	*M2/2
*met(c|)	*met(c|)
=1	=1
*	*2\right
!LO:TX:a:i:t=Fuga	!
!	!LO:N:vis=1
1r	2cc
!	!LO:N:vis=1
.	2f
=2-	=2-
*2\right	*
2r	2a\
2c\	2cc\
=3	=3
2d\	2b-\
[<2f\	2a\
=4-	=4-
2f\]	1g
2e\	.
=5	=5
2r	1a 1f
2F/	.
=6	=6
*	*^
2A\	2a/	2f\
2c\	2g/	2e\
*	*v	*v
=7	=7
*^	*
2d/	2B-\	2g/
2c/	2A\	2f/
=8	=8	=8
2d/	1G	1b-
2e/	.	.
=9	=9	=9
1f	1F	4a\
.	.	4b-\
.	.	4cc\
.	.	4a\
!!LO:LB:g=original
=10	=10	=10
2f/	1G	2b#/
2e/	.	2cc/
=11	=11	=11
*	*	*^
1d	1G	2cc/	2ryy
.	.	2b#/	4.g\
.	.	.	8f\
*v	*v	*	*
=12	=12	=12
2c\	1cc	1g 1e
*clefF4	*	*
2BB-/	.	.
=13	=13	=13
*^	*	*
2d/	2D\	2b-/	1f
2c/	2F\	2a/	.
*	*	*v	*v
=14	=14	=14
1c	2F\	1g
.	2E\	.
=15	=15	=15
2A/	2D\	2f/
2B-/	2BB-\	8d/L
.	.	8e/
.	.	8f/
.	.	8g/J
=16	=16	=16
*	*	*^
2B-/	1C	1f	2e/
2A/	.	.	2e/
*	*	*v	*v
=17	=17	=17
1G	1C	1ryy
*v	*v	*
!LO:TX:a:t=P:problem:w źródle końcowa kreska taktowa :||:	!LO:TX:a:t=P:problem:w źródle końcowa kreska taktowa :||:
==;;	==;;
*-	*-
!!!system-decoration: s1,s2
!!!RDF**kern: > = above
!!!RDF**kern: < = below
!!!EED: Antoni Szymański
!!!EST: 2020-12-08
!!!AIN: 1 empty
!!!ENC: Tomasz Grochalski
!!!END: 2020-06-12
